symbolia-dark/scalable/places/folder-download.svg

<?xml version="1.0" encoding="UTF-8" standalone="no"?>
<svg
   xmlns:dc="http://purl.org/dc/elements/1.1/"
   xmlns:cc="http://creativecommons.org/ns#"
   xmlns:rdf="http://www.w3.org/1999/02/22-rdf-syntax-ns#"
   xmlns:svg="http://www.w3.org/2000/svg"
   xmlns="http://www.w3.org/2000/svg"
   xmlns:sodipodi="http://sodipodi.sourceforge.net/DTD/sodipodi-0.dtd"
   xmlns:inkscape="http://www.inkscape.org/namespaces/inkscape"
   height="24"
   viewBox="0 0 24 24"
   width="24"
   version="1.1"
   id="svg4"
   sodipodi:docname="folder-download.svg"
   inkscape:version="1.0.2 (e86c870879, 2021-01-15)">
  <metadata
     id="metadata10">
    <rdf:RDF>
      <cc:Work
         rdf:about="">
        <dc:format>image/svg+xml</dc:format>
        <dc:type
           rdf:resource="http://purl.org/dc/dcmitype/StillImage" />
      </cc:Work>
    </rdf:RDF>
  </metadata>
  <defs
     id="defs8" />
  <sodipodi:namedview
     pagecolor="#ffffff"
     bordercolor="#666666"
     borderopacity="1"
     objecttolerance="10"
     gridtolerance="10"
     guidetolerance="10"
     inkscape:pageopacity="0"
     inkscape:pageshadow="2"
     inkscape:window-width="1908"
     inkscape:window-height="2112"
     id="namedview6"
     showgrid="false"
     inkscape:zoom="39.833333"
     inkscape:cx="12.050209"
     inkscape:cy="12"
     inkscape:window-x="8"
     inkscape:window-y="8"
     inkscape:window-maximized="0"
     inkscape:current-layer="svg4" />
  <path fill="white"
     id="path2"
     d="M 10 3 C 9.45 3 9 3.45 9 4 L 9 9 L 7.4101562 9 C 6.5201563 9 6.0692188 10.080937 6.6992188 10.710938 L 11.289062 15.300781 C 11.679063 15.690781 12.309219 15.690781 12.699219 15.300781 L 17.289062 10.710938 C 17.919062 10.080937 17.479844 9 16.589844 9 L 15 9 L 15 4 C 15 3.45 14.55 3 14 3 L 10 3 z M 11 5 L 13 5 L 13 11 L 14.169922 11 L 12 13.169922 L 9.8300781 11 L 11 11 L 11 5 z M 6 18 C 5.45 18 5 18.45 5 19 C 5 19.55 5.45 20 6 20 L 18 20 C 18.55 20 19 19.55 19 19 C 19 18.45 18.55 18 18 18 L 6 18 z " />
</svg>

<svg xmlns="http://www.w3.org/2000/svg" height="24" viewBox="0 0 24 24" width="24"><path fill="white" d="M16.59 9H15V4c0-.55-.45-1-1-1h-4c-.55 0-1 .45-1 1v5H7.41c-.89 0-1.34 1.08-.71 1.71l4.59 4.59c.39.39 1.02.39 1.41 0l4.59-4.59c.63-.63.19-1.71-.7-1.71zM5 19c0 .55.45 1 1 1h12c.55 0 1-.45 1-1s-.45-1-1-1H6c-.55 0-1 .45-1 1z"/></svg>
